X:67
T:Flowing Tide, The
R:hornpipe
I:speed 250
E:7
S:Boys of the Loough
M:C|
K:G
D|~G3B dGBd|GBdg bgag|(3efg dg Bdge|dBAG edBA|\
~G3B dGBd|GBdg bgag|(3efg dg Bdge|dBAB G3:|*
D|GFGB AGED|gfge dBAG|(3cde Bd ABGB|cABG AG (3EFG|\
DGBd B3d|cABG AG(3EFG|DGBd gdBG|DGFA G3:|**
<end>
<start>
